X:104
T:Self,The. JGi.104
O:Tealby,Lincolnshire
M:6/8
L:1/8
Q:3/8=100
S:Joshua Gibbons MS,1823,Tealby,Lincs.
R:jig
Z:VMP/R.Greig, 2009
K:F
c|cAc fac’|c’bag2b| gc’b agf|eggg2c|
cAc fac’|c’ba g2b|ac’f gbe|ffff2:|
|:Acf fed|dcBA2F|A/B/cF A/B/cF|EGGG2G|
Acf fed|dcBA2F|A/B/cA BGE|FFF F2:|

